packages/foundations/assets/icons/functional/images/environment/globe_14.svg

<svg width="14" height="14" viewBox="0 0 14 14" fill="none" xmlns="http://www.w3.org/2000/svg">
<g clip-path="url(#clip0_185_808)">
<path fill-rule="evenodd" clip-rule="evenodd" d="M7.00002 1.4C8.48878 1.4 9.9093 2.00095 10.961 3.03905C11.9991 4.09073 12.6 5.51124 12.6 7C12.6 10.0869 10.0869 12.6 7.00002 12.6C3.91316 12.6 1.40002 10.0869 1.40002 7C1.40002 3.91314 3.91316 1.4 7.00002 1.4ZM4.38762 7.69657H2.8542C3.12818 9.39827 4.432 10.7454 6.11221 11.1112C5.47703 10.4355 4.70808 8.98408 4.38762 7.69657ZM8.49543 7.69657H5.83823C6.47026 9.89926 7.46328 11.0835 7.98345 11.0835C8.31735 11.0835 8.58489 10.2323 8.58209 8.77632C8.58209 8.44809 8.55731 8.08493 8.49543 7.69657ZM11.1466 7.69657H9.9023C9.9648 8.09088 9.97783 8.45964 9.98413 8.80243C9.98413 9.28172 9.93687 9.71334 9.85462 10.1005C10.4342 9.50747 11.0005 8.71486 11.1466 7.69657ZM4.1317 3.92686C3.47958 4.49575 2.99658 5.43109 2.85455 6.30343H4.11091C4.03783 5.8492 4.00892 5.45307 4.00598 5.1163C4.00598 4.58283 4.07262 4.19734 4.1317 3.92686ZM7.98345 2.91613C8.53533 3.49552 9.39374 4.93906 9.62971 6.30343H11.1455C10.8724 4.63148 9.60843 3.30169 7.98345 2.91613ZM5.98726 2.91655C5.69011 2.98585 5.44049 3.76768 5.44329 5.22368C5.44329 5.55191 5.46807 5.915 5.52988 6.30343H8.18715C7.53895 4.10074 6.51996 2.79216 5.98726 2.91655Z" fill="#1A1C1F"/>
</g>
<defs>
<clipPath id="clip0_185_808">
<rect width="14" height="14" fill="white"/>
</clipPath>
</defs>
</svg>

<svg xmlns="http://www.w3.org/2000/svg" width="14" height="14" fill="none"><g clip-path="url(#a)"><path fill="#1A1C1F" fill-rule="evenodd" d="M7 1.4a5.65 5.65 0 0 1 3.961 1.64A5.65 5.65 0 0 1 12.6 7c0 3.087-2.513 5.6-5.6 5.6A5.61 5.61 0 0 1 1.4 7c0-3.087 2.513-5.6 5.6-5.6M4.388 7.697H2.854a4.19 4.19 0 0 0 3.258 3.414c-.635-.676-1.404-2.127-1.724-3.414m4.107 0H5.838c.632 2.202 1.625 3.387 2.145 3.387.334 0 .602-.852.6-2.308 0-.328-.026-.691-.088-1.08m2.652 0H9.902c.063.394.076.763.082 1.105 0 .48-.047.911-.13 1.299.58-.594 1.147-1.386 1.293-2.404m-7.015-3.77c-.652.569-1.135 1.504-1.277 2.376H4.11a8 8 0 0 1-.105-1.187c0-.533.067-.919.126-1.19m3.851-1.01c.552.579 1.41 2.022 1.647 3.386h1.515a4.19 4.19 0 0 0-3.162-3.387m-1.996 0c-.297.069-.547.85-.544 2.307 0 .328.025.691.087 1.08h2.657C7.54 4.1 6.52 2.791 5.987 2.916" clip-rule="evenodd"/></g><defs><clipPath id="a"><path fill="#fff" d="M0 0h14v14H0z"/></clipPath></defs></svg>
